X: 1988
T: Yeşil Yaprak Arasında
C: Mustafa Ataç
O: Turkey
F: http://compmusic.upf.edu/node/140
N: saba--turku--curcuna--yesil_yaprak--
N: makam= saba
N: form= turku
N: usul= curcuna = 10/8
M: 10/8
L: 1/16
K: C _2/4B _3/4d  
Q: 1/4=204
%%MIDI tuningsystem comma53
c4 G2c4c4c6  | e6f4e2 d2d4c2  | g4 {_7/8a}f2f2 e2e2 d2d4c2  | \
w:  *  Ye şil  yap rak   |  a ra sın *  da   |  kır *  *  mı *  zı  *  gül   | 
c4 B2A2 B2cd cBc4z2  | 
w:  gon *  ce *  si    | 
c4 d2c2 B2A2 B2cd cBAB  | c4 G2c4c4c6  | \
w:  SAZ  |  *  Ye şil  yap rak   | 
e6f4e2 d2d4c2  | 
w:  a ra sın *  da   | 
g4 {_7/8a}f2f2 e2e2 d2d4c2  | c4 B2A2 B2cd cBc4z2  | \
w:  kır *  *  mı *  zı  *  gül   |  gon *  ce *  si    | 
c4 d2c2 B2A2 B2cd cBAB  | 
w:  SAZ  | 
c4 c2d4d4d4c2  | (3c2B2A2 B2c4(3c2B2A2A6  | \
w:  *  Ne re ler de   |  mes *  *  *  ken  kur *  *  muş   | 
A4 G2A4B4d4c2  | 
w:  gön *  lü mün  eğ  | 
c4 B2A2 B2cd cBc6  | c4 d2c2 B2A2 B2cd cBAB  | 
w:  len *  ce *  si    |  SAZ  | 
c4 c2d4d4d4c2  | (3c2B2A2 B2c4(3c2B2A2A6  | \
w:  *  Ne re ler de   |  mes *  *  *  ken  kur *  *  muş   | 
A4 G2A4B4d4c2  | 
w:  gön *  lü mün  eğ  | 
c4 B2B2 A2A8z2  | f4 f2f4ef gef4eg  | \
w:  len *  ce *  si    |  SAZ  | 
f4 e2f4f2 e2f6  | 
w:  *  Va rın  de *  yin   | 
e2f2 g2g2 f2f2 e2e2 d2c2  | g4 f2f2 e2e2 d2d4c2  | \
w:  naz *  *  lı  *  yâ *  re   |  ay *  rı *  lık  *  son   | 
c4 B2A2 B2cd cBc6  | 
w:  ge *  ce *  si    | 
f4 f2f4ef gef4eg  | f4 e2f4f2 e2f6  | \
w:  SAZ  |  *  Va rın  de *  yin   | 
e2f2 g2g2 f2f2 e2e2 d2c2  | 
w:  naz *  *  lı  *  yâ *  re   | 
g4 f2f2 e2e2 d2d4c2  | c4 B2A2 B2cd cBc6  | \
w:  ay *  rı *  lık  *  son   |  ge *  ce *  si    | 
c4 d2c2 B2A2 B2cd cBAB  | 
w:  SAZ  | 
c4 c2d4d4d4c2  | (3c2B2A2 B2c4(3c2B2A2A4z2  | \
w:  *  Gö züm  gör dü   |  gön *  *  *  lüm  sev *  *  di   | 
A4 G2A4B2 A2d4c2  | 
w:  yâr  *  yo lu *  na   | 
c4 B2A2 B2c3/2d/ cBc6  | c4 d2c2 B2A2 B2cd cBAB  | 
w:  fe *  dâ *  yım    |  SAZ  | 
c4 c2d4d4d4c2  | (3c2B2A2 B2c4(3c2B2A2A6  | \
w:  *  Val la hi  dost   |  bil *  *  *  lâ hi  *  *  dost   | 
A4 G2A4B2 A2d4c2  | 
w:  sa *  na  kur *  ban   | 
c4 B2B2 A2A8-A2  | c4 G2c4c4c6  | e6f4e2 d2d4c2  | \
w:  can  *  dâ *  im    |  *  Ye şil  yap rak   |  a ra sın *  da   | 
g4 {_7/8a}f2f2 e2e2 d2d4c2  | 
w:  kır *  *  mı *  zı  *  gül   | 
c4 B2A2 B2cd cBc4z2  | c4 d2c2 B2A2 B2cd cBAB  | 
w:  gon *  ce *  si    |  SAZ  | 
c4 G2c4c4c6  | e6f4e2 d2d4c2  | g4 {_7/8a}f2f2 e2e2 d2d4c2  | \
w:  *  Ye şil  yap rak   |  a ra sın *  da   |  kır *  *  mı *  zı  *  gül   | 
c4 B2A2 B2cd cBc4z2  | 
w:  gon *  ce *  si    | 
c4 d2c2 B2A2 B2cd cBAB  | c4 c2d4d4d4c2  | \
w:  SAZ  |  *  Ne re ler de   | 
(3c2B2A2 B2c4(3c2B2A2A6  | 
w:  mes *  *  *  ken  kur *  *  muş   | 
A4 G2A4B4d4c2  | c4 B2A2 B2cd cBc6  | \
w:  gön *  lü mün  eğ  |  len *  ce *  si    | 
c4 d2c2 B2A2 B2cd cBAB  | 
w:  SAZ  | 
c4 c2d4d4d4c2  | (3c2B2A2 B2c4(3c2B2A2A6  | \
w:  *  Ne re ler de   |  mes *  *  *  ken  kur *  *  muş   | 
A4 G2A4B4d4c2  | 
w:  gön *  lü mün  eğ  | 
c4 B2B2 A2A8z2  | f4 f2f4ef gef4eg  | \
w:  len *  ce *  si    |  SAZ  | 
f4 e2f4f2 e2f6  | 
w:  *  Va rın  de *  yin   | 
e2f2 g2g2 f2f2 e2e2 d2c2  | g4 f2f2 e2e2 d2d4c2  | \
w:  naz *  *  lı  *  yâ *  re   |  ay *  rı *  lık  *  son   | 
c4 B2A2 B2cd cBc6  | 
w:  ge *  ce *  si    | 
f4 f2f4ef gef4eg  | f4 e2f4f2 e2f6  | \
w:  SAZ  |  *  Va rın  de *  yin   | 
e2f2 g2g2 f2f2 e2e2 d2c2  | 
w:  naz *  *  lı  *  yâ *  re   | 
g4 f2f2 e2e2 d2d4c2  | c4 B2A2 B2cd cBc6  | \
w:  ay *  rı *  lık  *  son   |  ge *  ce *  si    | 
c4 d2c2 B2A2 B2cd cBAB  | 
w:  SAZ  | 
c4 c2d4d4d4c2  | (3c2B2A2 B2c4(3c2B2A2A4z2  | \
w:  *  Gö züm  gör dü   |  gön *  *  *  lüm  sev *  *  di   | 
A4 G2A4B2 A2d4c2  | 
w:  yâr  *  yo lu *  na   | 
c4 B2A2 B2c3/2d/ cBc6  | c4 d2c2 B2A2 B2cd cBAB  | 
w:  fe *  dâ *  yım    |  SAZ  | 
c4 c2d4d4d4c2  | (3c2B2A2 B2c4(3c2B2A2A6  | \
w:  *  Val la hi  dost   |  bil *  *  *  lâ hi  *  *  dost   | 
A4 G2A4B2 A2d4c2  | 
w:  sa *  na  kur *  ban   | 
c4 B2B2 A2A8-A2  | |


